Newaita-dark/actions/16/delete-comment.svg

<svg height="16" viewBox="0 0 16 16" width="16" xmlns="http://www.w3.org/2000/svg"><path d="m7.9375 1.453125c-3.632812 0-6.609375 2.789063-6.609375 6.28125 0 .984375.238281 1.917969.660156 2.746094l-.652343 3.414062c-.042969.238281.046874.480469.234374.632813s.445313.191406.667969.097656l2.871094-1.210938c.859375.386719 1.820313.601563 2.828125.601563.453125 0 .894531-.046875 1.324219-.128906v-1.34375c-.421875.101562-.863281.152343-1.324219.152343-.878906 0-1.699219-.195312-2.425781-.542968-.1875-.132813-.429688-.15625-.640625-.066406l-2.011719.847656.433594-2.265625c.007812-.039063.011719-.078125.011719-.117188.050781-.171875.027343-.355469-.0625-.511719-.382813-.6875-.597657-1.46875-.597657-2.304687 0-2.742187 2.328125-4.964844 5.292969-4.964844s5.296875 2.222657 5.296875 4.964844c0 .578125-.105469 1.132813-.296875 1.652344h1.382812c.148438-.527344.230469-1.082031.230469-1.652344 0-3.492187-2.980469-6.28125-6.613281-6.28125zm0 0" fill="#e0e0e0"/><g fill="#f44336"><path d="m13.519531 14.582031-2.804687-2.804687c-.128906-.132813-.128906-.339844 0-.46875l.46875-.46875c.128906-.128906.335937-.128906.464844 0l2.808593 2.808594c.128907.128906.128907.335937 0 .464843l-.46875.46875c-.128906.128907-.339843.128907-.46875 0zm0 0"/><path d="m10.714844 13.648438 2.804687-2.808594c.128907-.128906.339844-.128906.46875 0l.46875.46875c.128907.128906.128907.335937 0 .46875l-2.808593 2.804687c-.128907.128907-.335938.128907-.464844 0l-.46875-.46875c-.128906-.128906-.128906-.335937 0-.464843zm0 0"/></g></svg>

<?xml version="1.0" encoding="UTF-8"?>
<svg xmlns="http://www.w3.org/2000/svg" xmlns:xlink="http://www.w3.org/1999/xlink" width="16px" height="16px" viewBox="0 0 16 16" version="1.1">
<g id="surface1">
<path style=" stroke:none;fill-rule:nonzero;fill:rgb(87.843138%,87.843138%,87.843138%);fill-opacity:1;" d="M 7.9375 1.453125 C 4.304688 1.453125 1.328125 4.242188 1.328125 7.734375 C 1.328125 8.71875 1.566406 9.652344 1.988281 10.480469 L 1.335938 13.894531 C 1.292969 14.132812 1.382812 14.375 1.570312 14.527344 C 1.757812 14.679688 2.015625 14.71875 2.238281 14.625 L 5.109375 13.414062 C 5.96875 13.800781 6.929688 14.015625 7.9375 14.015625 C 8.390625 14.015625 8.832031 13.96875 9.261719 13.886719 L 9.261719 12.542969 C 8.839844 12.644531 8.398438 12.695312 7.9375 12.695312 C 7.058594 12.695312 6.238281 12.5 5.511719 12.152344 C 5.324219 12.019531 5.082031 11.996094 4.871094 12.085938 L 2.859375 12.933594 L 3.292969 10.667969 C 3.300781 10.628906 3.304688 10.589844 3.304688 10.550781 C 3.355469 10.378906 3.332031 10.195312 3.242188 10.039062 C 2.859375 9.351562 2.644531 8.570312 2.644531 7.734375 C 2.644531 4.992188 4.972656 2.769531 7.9375 2.769531 C 10.902344 2.769531 13.234375 4.992188 13.234375 7.734375 C 13.234375 8.3125 13.128906 8.867188 12.9375 9.386719 L 14.320312 9.386719 C 14.46875 8.859375 14.550781 8.304688 14.550781 7.734375 C 14.550781 4.242188 11.570312 1.453125 7.9375 1.453125 Z M 7.9375 1.453125 "/>
<path style=" stroke:none;fill-rule:nonzero;fill:rgb(95.686275%,26.274511%,21.176471%);fill-opacity:1;" d="M 13.519531 14.582031 L 10.714844 11.777344 C 10.585938 11.644531 10.585938 11.4375 10.714844 11.308594 L 11.183594 10.839844 C 11.3125 10.710938 11.519531 10.710938 11.648438 10.839844 L 14.457031 13.648438 C 14.585938 13.777344 14.585938 13.984375 14.457031 14.113281 L 13.988281 14.582031 C 13.859375 14.710938 13.648438 14.710938 13.519531 14.582031 Z M 13.519531 14.582031 "/>
<path style=" stroke:none;fill-rule:nonzero;fill:rgb(95.686275%,26.274511%,21.176471%);fill-opacity:1;" d="M 10.714844 13.648438 L 13.519531 10.839844 C 13.648438 10.710938 13.859375 10.710938 13.988281 10.839844 L 14.457031 11.308594 C 14.585938 11.4375 14.585938 11.644531 14.457031 11.777344 L 11.648438 14.582031 C 11.519531 14.710938 11.3125 14.710938 11.183594 14.582031 L 10.714844 14.113281 C 10.585938 13.984375 10.585938 13.777344 10.714844 13.648438 Z M 10.714844 13.648438 "/>
</g>
</svg>
